components/Company/logos/logo-decisiv.svg

<svg height="140" viewBox="0 0 400 140" width="400" xmlns="http://www.w3.org/2000/svg"><path d="m291.170224 14.3864641h14.862095l14.555392 32.740884 14.706145-32.740884h14.706144l-29.3759 61.6135359zm-79.841525 0h-14.555392v51.3472376h14.555392zm74.814716 0h-14.555392v51.3472376h14.555392zm-44.341962-.1049724c-19.155936 0-23.158669 10.8226519-22.909148 14.2237569 1.102051 14.9638122 30.976994 15.4099448 30.98739 23.0939227 0 2.4038674-5.536247 4.5558011-12.839935 2.6243094-5.078792-1.3541437-9.762509-4.7604973-9.762509-4.7604973l-10.973727 8.2718232s11.34281 10.2662984 29.256339 8.2770719c15.340343-1.7058012 21.027343-9.2270719 21.022148-15.5516575-.005202-6.3245856-6.186045-10.0038674-6.186045-10.0038674-4.319832-3.0651934-14.555392-6.2983426-14.555392-6.2983426-10.838569-2.7082872-10.115998-5.3955801-10.115998-5.3955801.280711-3.2541436 6.378381-3.0441989 6.378381-3.0441989 5.806562-.1259668 12.184943 4.6240332 12.184943 4.6240332l11.015313-7.710221s-7.984673-8.3505525-23.50176-8.3505525zm-77.705001 40.7345304c-10.048419 0-18.19424-6.5555249-18.19424-14.648895 0-8.0933702 8.145821-14.6488951 18.19424-14.6488951 5.71819 0 10.854164 2.1414365 14.191507 5.4848067l12.834737-5.7104973c-5.926124-6.8232044-15.818592-11.3002762-27.031443-11.3002762-18.142256 0-32.848401 11.7201657-32.848401 26.1748619 0 14.4546961 14.706145 26.1801105 32.848401 26.1801105 10.916545 0 20.575087-4.2461326 26.553194-10.7701658l-12.080975-6.5292817c-3.321749 3.5060773-8.577285 5.768232-14.46702 5.768232zm-49.701466-11.3790055h-34.1375932c1.8350191 6.7444751 8.7800205 11.7674033 17.0713957 11.7674033 5.0683955 0 10.5578575-1.6165746 13.7600435-4.6187845l12.112166 4.928453c-7.028175 6.9019337-15.912163 10.3607735-26.1685157 10.3607735-16.7958829 0-30.410373-11.6309392-30.410373-25.980663s13.6144901-25.9754144 30.410373-25.9754144c14.5034087 0 26.6259707 8.6707183 29.6722067 20.2701658.4921 1.8610908.74199 3.7789762.743365 5.7052486-.003099 1.1866838-.098698 2.3712807-.28591 3.5428177zm-1.559506-9.2480663c-2.469219-5.6790055-8.114632-9.5997238-15.4910965-9.5997238-7.3764648 0-12.9958858 3.9207183-15.4910959 9.5997238zm-50.2420953-1.212431c0 18.3229282-13.1466381 33.1765194-35.9778104 33.1765194h-26.6155743v-66.3530387h26.0801438c22.7843871 0 36.4976459 14.8535912 36.4976459 33.1765193zm-14.8932852 0c0-11.5469613-7.7039611-20.8632596-19.6445811-20.8632596h-13.1674315v41.7475138h13.9419863c11.956215 0 18.8544312-9.3425415 18.8544312-20.8632597z" fill="#00607e" transform="translate(24 32)"/></svg>

<?xml version="1.0" encoding="UTF-8"?>
<svg width="400px" height="140px" viewBox="0 0 400 140" version="1.1" xmlns="http://www.w3.org/2000/svg" xmlns:xlink="http://www.w3.org/1999/xlink">
    <title>Artboard</title>
    <g id="Artboard" stroke="none" stroke-width="1" fill="none" fill-rule="evenodd">
        <g id="Decisiv-Logo-096126" transform="translate(24.000000, 32.000000)" fill="#00607E" fill-rule="nonzero">
            <path d="M291.170224,14.3864641 L306.032319,14.3864641 L320.587711,47.1273481 L335.293856,14.3864641 L350,14.3864641 L320.6241,76 L291.170224,14.3864641 Z M211.328699,14.3864641 L196.773307,14.3864641 L196.773307,65.7337017 L211.328699,65.7337017 L211.328699,14.3864641 Z M286.143415,14.3864641 L271.588023,14.3864641 L271.588023,65.7337017 L286.143415,65.7337017 L286.143415,14.3864641 Z M241.801453,14.2814917 C222.645517,14.2814917 218.642784,25.1041436 218.892305,28.5052486 C219.994356,43.4690608 249.869299,43.9151934 249.879695,51.5991713 C249.879695,54.0030387 244.343448,56.1549724 237.03976,54.2234807 C231.960968,52.869337 227.277251,49.4629834 227.277251,49.4629834 L216.303524,57.7348066 C216.303524,57.7348066 227.646334,68.001105 245.559863,66.0118785 C260.900206,64.3060773 266.587206,56.7848066 266.582011,50.460221 C266.576809,44.1356354 260.395966,40.4563536 260.395966,40.4563536 C256.076134,37.3911602 245.840574,34.158011 245.840574,34.158011 C235.002005,31.4497238 235.724576,28.7624309 235.724576,28.7624309 C236.005287,25.5082873 242.102957,25.718232 242.102957,25.718232 C247.909519,25.5922652 254.2879,30.3422652 254.2879,30.3422652 L265.303213,22.6320442 C265.303213,22.6320442 257.31854,14.2814917 241.801453,14.2814917 L241.801453,14.2814917 Z M164.096452,55.0160221 C154.048033,55.0160221 145.902212,48.4604972 145.902212,40.3671271 C145.902212,32.2737569 154.048033,25.718232 164.096452,25.718232 C169.814642,25.718232 174.950616,27.8596685 178.287959,31.2030387 L191.122696,25.4925414 C185.196572,18.669337 175.304104,14.1922652 164.091253,14.1922652 C145.948997,14.1922652 131.242852,25.9124309 131.242852,40.3671271 C131.242852,54.8218232 145.948997,66.5472376 164.091253,66.5472376 C175.007798,66.5472376 184.66634,62.301105 190.644447,55.7770718 L178.563472,49.2477901 C175.241723,52.7538674 169.986187,55.0160221 164.096452,55.0160221 Z M114.394986,43.6370166 L80.2573928,43.6370166 C82.0924119,50.3814917 89.0374133,55.4044199 97.3287885,55.4044199 C102.397184,55.4044199 107.886646,53.7878453 111.088832,50.7856354 L123.200998,55.7140884 C116.172823,62.6160221 107.288835,66.0748619 97.0324823,66.0748619 C80.2365994,66.0748619 66.6221093,54.4439227 66.6221093,40.0941989 C66.6221093,25.7444751 80.2365994,14.1187845 97.0324823,14.1187845 C111.535891,14.1187845 123.658453,22.7895028 126.704689,34.3889503 C127.196789,36.2500411 127.446679,38.1679265 127.448054,40.0941989 C127.444955,41.2808827 127.349356,42.4654796 127.162144,43.6370166 L114.394986,43.6370166 Z M112.83548,34.3889503 C110.366261,28.7099448 104.720848,24.7892265 97.3443835,24.7892265 C89.9679187,24.7892265 84.3484977,28.7099448 81.8532876,34.3889503 L112.83548,34.3889503 Z M62.5933847,33.1765193 L62.5933847,33.1765193 C62.5933847,51.4994475 49.4467466,66.3530387 26.6155743,66.3530387 L0,66.3530387 L0,0 L26.0801438,0 C48.8645309,0 62.5777897,14.8535912 62.5777897,33.1765193 L62.5933847,33.1765193 Z M47.7000995,33.1765193 C47.7000995,21.629558 39.9961384,12.3132597 28.0555184,12.3132597 L14.8880869,12.3132597 L14.8880869,54.0607735 L28.8300732,54.0607735 C40.7862882,54.0607735 47.6845044,44.718232 47.6845044,33.1975138 L47.7000995,33.1765193 Z" id="Shape"></path>
        </g>
    </g>
</svg>
